src/assets/icons/remove.svg

<svg widh="100%" height="100%" viewBox="0 0 24 24" fill="current"
  xmlns="http://www.w3.org/2000/svg">
  <path d="M17.9771 7.90738L13.8998 11.9847L17.9771 16.062C18.5075 16.5925 18.503 17.4511 17.9771 17.9771C17.4511 18.503 16.588 18.503 16.0621 17.9771L11.9847 13.8998L7.90739 17.9771C7.37694 18.5075 6.51833 18.503 5.99235 17.9771C5.46641 17.4511 5.46641 16.588 5.99235 16.062L10.0697 11.9847L5.99235 7.90738C5.4619 7.37693 5.46641 6.51832 5.99235 5.99234C6.51833 5.46639 7.38144 5.46639 7.90739 5.99234L11.9847 10.0697L16.0621 5.99234C16.5925 5.46189 17.4511 5.46639 17.9771 5.99234C18.503 6.51832 18.5075 7.37693 17.9771 7.90738Z"/>
</svg>

<svg xmlns="http://www.w3.org/2000/svg" fill="currentColor" viewBox="0 0 24 24">
  <path d="M17.977 7.907 13.9 11.985l4.077 4.077c.53.53.526 1.39 0 1.915a1.36 1.36 0 0 1-1.915 0L11.985 13.9l-4.078 4.077c-.53.53-1.389.526-1.915 0a1.36 1.36 0 0 1 0-1.915l4.078-4.077-4.078-4.078a1.355 1.355 0 0 1 0-1.915 1.36 1.36 0 0 1 1.915 0l4.078 4.078 4.077-4.078a1.355 1.355 0 0 1 1.915 1.915Z"/>
</svg>
